X:453
T: "Tuerkengefahr"
N: Z1133
O: Europa, Mitteleuropa, Deutschland, Niederrhein
R: Vaterland und Wehr
M: 4/4
L: 1/8
K: G
G2 | G2G2_B2B2 | G4=F2
F2 | _B2B2c2c2 | d4z2
c2 | d2ddd2c2 | d4c2
d2 | d2d2c2c2 | _B4z2
B2 | c2_B2c2c2 | d4d2
_B2 | c3c_B2A2 | G4=F2
F2 | c2_B2c2c2 | d6
_B2 | c2_B2A2G2 | c4d2
_BB | _B2A4F2 | G4z2

